assets/images/list.svg

<svg width="48" height="48" viewBox="0 0 48 48" fill="none" xmlns="http://www.w3.org/2000/svg">
<circle cx="24" cy="24" r="23.5" fill="white" stroke="#022F45"/>
<g clip-path="url(#clip0_51_9119)">
<path d="M36.3864 21.0655V32.5635C36.3845 34.0051 35.8059 35.3871 34.7773 36.4064C33.7487 37.4257 32.3541 37.9992 30.8995 38.001H17.4869C16.0322 37.9994 14.6375 37.4259 13.6089 36.4066C12.5803 35.3872 12.0017 34.0051 12 32.5635V14.4385C12.0017 12.9969 12.5803 11.6148 13.6089 10.5954C14.6375 9.57605 16.0322 9.00265 17.4869 9.001H24.2112C25.2519 8.99861 26.2828 9.20072 27.2442 9.59563C28.2056 9.99055 29.0785 10.5704 29.8124 11.3017L34.0619 15.513C34.8006 16.2402 35.3864 17.1053 35.7854 18.0584C36.1844 19.0115 36.3887 20.0336 36.3864 21.0655Z" fill="#FEB703"/>
<path d="M29.0705 24.7082H19.3159C18.6693 24.7089 18.0494 24.9638 17.5922 25.4169C17.135 25.87 16.8778 26.4843 16.877 27.125V29.5419C16.8778 30.1826 17.135 30.7968 17.5922 31.2498C18.0494 31.7028 18.6693 31.9576 19.3159 31.9582H29.0705C29.717 31.9576 30.3369 31.7028 30.7941 31.2498C31.2514 30.7968 31.5086 30.1826 31.5093 29.5419V27.125C31.5086 26.4843 31.2514 25.87 30.7942 25.4169C30.337 24.9638 29.7171 24.7089 29.0705 24.7082ZM30.2896 29.5419C30.289 29.8621 30.1604 30.1691 29.9319 30.3955C29.7034 30.6219 29.3937 30.7494 29.0705 30.75H19.3159C18.9927 30.7494 18.683 30.6219 18.4545 30.3955C18.226 30.1691 18.0973 29.8621 18.0967 29.5419V27.125C18.0973 26.8048 18.226 26.4978 18.4545 26.2714C18.683 26.045 18.9927 25.9175 19.3159 25.9169H29.0705C29.3937 25.9175 29.7034 26.045 29.9319 26.2714C30.1604 26.4978 30.289 26.8048 30.2896 27.125V29.5419ZM16.877 20.4794C16.877 20.3191 16.9413 20.1654 17.0557 20.052C17.17 19.9387 17.3251 19.875 17.4869 19.875H22.3639C22.4456 19.8725 22.5268 19.8863 22.603 19.9156C22.6791 19.9448 22.7486 19.9889 22.8072 20.0453C22.8658 20.1016 22.9124 20.169 22.9442 20.2436C22.976 20.3181 22.9924 20.3982 22.9924 20.4791C22.9924 20.56 22.976 20.6401 22.9442 20.7146C22.9124 20.7892 22.8658 20.8566 22.8072 20.9129C22.7486 20.9693 22.6791 21.0134 22.603 21.0426C22.5268 21.0719 22.4456 21.0856 22.3639 21.0832H17.4869C17.3252 21.0832 17.1702 21.0196 17.0559 20.9064C16.9415 20.7931 16.8772 20.6396 16.877 20.4794ZM16.877 15.6457C16.8772 15.4855 16.9415 15.3319 17.0559 15.2187C17.1702 15.1055 17.3252 15.0419 17.4869 15.0419H22.3639C22.4456 15.0394 22.5268 15.0532 22.603 15.0824C22.6791 15.1117 22.7486 15.1558 22.8072 15.2121C22.8658 15.2685 22.9124 15.3359 22.9442 15.4104C22.976 15.4849 22.9924 15.565 22.9924 15.646C22.9924 15.7269 22.976 15.807 22.9442 15.8815C22.9124 15.956 22.8658 16.0234 22.8072 16.0798C22.7486 16.1361 22.6791 16.1802 22.603 16.2095C22.5268 16.2387 22.4456 16.2525 22.3639 16.25H17.4869C17.3251 16.25 17.17 16.1864 17.0557 16.073C16.9413 15.9597 16.877 15.806 16.877 15.6457ZM34.0647 15.512L29.8152 11.3008C29.0814 10.5694 28.2085 9.98949 27.2471 9.59457C26.2857 9.19966 25.2548 8.99758 24.214 9.00002H17.4869C16.0322 9.00167 14.6375 9.57508 13.6089 10.5944C12.5803 11.6138 12.0017 12.9959 12 14.4375V32.5625C12.0017 34.0041 12.5803 35.3862 13.6089 36.4056C14.6375 37.425 16.0322 37.9984 17.4869 38H30.8995C32.3542 37.9984 33.7488 37.425 34.7775 36.4056C35.8061 35.3862 36.3847 34.0041 36.3864 32.5625V21.0645C36.389 20.0331 36.1851 19.0114 35.7866 18.0586C35.3881 17.1058 34.8028 16.2408 34.0647 15.5137V15.512ZM33.2011 16.3661C33.8583 17.0206 34.3696 17.8044 34.702 18.6669H28.4572C27.9722 18.6669 27.507 18.4759 27.164 18.136C26.821 17.7961 26.6283 17.3351 26.6283 16.8544V10.6664C27.4981 10.9968 28.2888 11.5034 28.9499 12.1538L33.2011 16.365V16.3661ZM35.1655 32.5654C35.1642 33.6866 34.7141 34.7616 33.914 35.5545C33.114 36.3473 32.0292 36.7934 30.8978 36.7947H17.4869C16.3554 36.7934 15.2707 36.3473 14.4706 35.5545C13.6706 34.7616 13.2205 33.6866 13.2191 32.5654V14.4404C13.2205 13.3191 13.6706 12.2441 14.4706 11.4512C15.2707 10.6584 16.3554 10.2123 17.4869 10.211H24.2112C24.6139 10.2132 25.0156 10.2511 25.4114 10.3243V16.8544C25.4125 17.6552 25.734 18.4229 26.3054 18.9891C26.8768 19.5554 27.6514 19.874 28.4595 19.875H35.0501C35.1235 20.2674 35.1618 20.6654 35.1644 21.0645L35.1655 32.5654Z" fill="#022F45"/>
</g>
<defs>
<clipPath id="clip0_51_9119">
<rect width="24.3864" height="29" fill="white" transform="translate(12 9)"/>
</clipPath>
</defs>
</svg>

<svg width="48" height="48" fill="none" xmlns="http://www.w3.org/2000/svg"><circle cx="24" cy="24" r="23.5" fill="#fff" stroke="#022F45"/><g clip-path="url(#a)"><path d="M36.386 21.066v11.497a5.42 5.42 0 0 1-1.609 3.843 5.52 5.52 0 0 1-3.878 1.595H17.487a5.519 5.519 0 0 1-3.878-1.594A5.42 5.42 0 0 1 12 32.564V14.437a5.42 5.42 0 0 1 1.609-3.843 5.519 5.519 0 0 1 3.878-1.594h6.724c1.04-.002 2.072.2 3.033.595a7.88 7.88 0 0 1 2.568 1.706l4.25 4.211a7.798 7.798 0 0 1 1.723 2.545c.4.954.604 1.976.601 3.008Z" fill="#FEB703"/><path d="M29.07 24.708h-9.754c-.647 0-1.267.256-1.724.709a2.409 2.409 0 0 0-.715 1.708v2.417c0 .64.258 1.255.715 1.708a2.452 2.452 0 0 0 1.724.708h9.755c.646 0 1.266-.255 1.723-.708a2.408 2.408 0 0 0 .715-1.708v-2.417c0-.64-.258-1.255-.715-1.708a2.453 2.453 0 0 0-1.724-.709Zm1.22 4.834c-.001.32-.13.627-.358.853a1.227 1.227 0 0 1-.861.355h-9.755c-.323 0-.633-.128-.861-.355a1.205 1.205 0 0 1-.358-.853v-2.417c0-.32.129-.627.357-.854.229-.226.539-.354.862-.354h9.755c.323 0 .632.128.86.354.23.227.358.534.359.854v2.417Zm-13.413-9.063c0-.16.064-.314.179-.427a.613.613 0 0 1 .43-.177h4.878a.614.614 0 0 1 .58.369.6.6 0 0 1-.341.799.615.615 0 0 1-.24.04h-4.876a.612.612 0 0 1-.431-.177.602.602 0 0 1-.179-.427Zm0-4.833c0-.16.065-.314.179-.427a.612.612 0 0 1 .43-.177h4.878a.615.615 0 0 1 .58.368.6.6 0 0 1-.341.8.615.615 0 0 1-.24.04h-4.876a.612.612 0 0 1-.431-.177.601.601 0 0 1-.179-.427Zm17.188-.134-4.25-4.211a7.877 7.877 0 0 0-2.568-1.706A7.935 7.935 0 0 0 24.214 9h-6.727a5.519 5.519 0 0 0-3.878 1.594A5.42 5.42 0 0 0 12 14.438v18.124a5.42 5.42 0 0 0 1.609 3.844A5.518 5.518 0 0 0 17.487 38H30.9a5.518 5.518 0 0 0 3.878-1.594 5.42 5.42 0 0 0 1.608-3.843V21.063a7.739 7.739 0 0 0-.6-3.005 7.795 7.795 0 0 0-1.721-2.545v-.002Zm-.864.854a6.594 6.594 0 0 1 1.501 2.3h-6.245c-.485 0-.95-.19-1.293-.53-.343-.34-.536-.8-.536-1.282v-6.188c.87.33 1.66.837 2.322 1.488l4.251 4.211v.001Zm1.965 16.2a4.215 4.215 0 0 1-1.252 2.988 4.293 4.293 0 0 1-3.016 1.24H17.487a4.293 4.293 0 0 1-3.016-1.24 4.216 4.216 0 0 1-1.252-2.989V14.44a4.216 4.216 0 0 1 1.252-2.989 4.293 4.293 0 0 1 3.016-1.24h6.724c.403.002.805.04 1.2.113v6.53c.002.801.323 1.569.894 2.135a3.066 3.066 0 0 0 2.154.886h6.591c.074.392.112.79.114 1.19l.002 11.5Z" fill="#022F45"/></g><defs><clipPath id="a"><path fill="#fff" transform="translate(12 9)" d="M0 0h24.386v29H0z"/></clipPath></defs></svg>
